cssgg/webcam.svg

<svg
  width="24"
  height="24"
  viewBox="0 0 24 24"
  fill="none"
  xmlns="http://www.w3.org/2000/svg"
>
  <path
    d="M13 10C13 10.5523 12.5523 11 12 11C11.4477 11 11 10.5523 11 10C11 9.44772 11.4477 9 12 9C12.5523 9 13 9.44772 13 10Z"
    fill="currentColor"
  />
  <path
    fill-rule="evenodd"
    clip-rule="evenodd"
    d="M13 14.9C15.2822 14.4367 17 12.419 17 10C17 7.23858 14.7614 5 12 5C9.23858 5 7 7.23858 7 10C7 12.419 8.71776 14.4367 11 14.9V17H7V19H17V17H13V14.9ZM12 13C13.6569 13 15 11.6569 15 10C15 8.34315 13.6569 7 12 7C10.3431 7 9 8.34315 9 10C9 11.6569 10.3431 13 12 13Z"
    fill="currentColor"
  />
</svg>

<svg viewBox="0 0 24 24" xmlns="http://www.w3.org/2000/svg"><g><path d="M13 10c0 .55-.45 1-1 1 -.56 0-1-.45-1-1 0-.56.44-1 1-1 .55 0 1 .44 1 1Z"/><path fill-rule="evenodd" d="M13 14.9c2.28-.47 4-2.481 4-4.9 0-2.77-2.24-5-5-5 -2.77 0-5 2.23-5 5 0 2.41 1.71 4.43 4 4.9V17H7v2h10v-2h-4v-2.1ZM12 13c1.65 0 3-1.35 3-3 0-1.66-1.35-3-3-3 -1.66 0-3 1.34-3 3 0 1.65 1.34 3 3 3Z"/></g></svg>
